X:8
T:Sukkeret er S\ott Sann (reinlander)
R:reinländer
Z:2001 Brian Wilson <baab@mediaone.net>
M:4/4
L:1/8
K:D
|: "D"DFFE D2DF | "D"A2dF A4
| "A7"c2cB G2GB | "A7"B2BA "D"F4
| "D"DFFE D2DF | "D"A2dF A3A
| "A7"c2cB AGFE | "D"D2"A7"{E}DC "D"D4 :|
|: "D"A,FFF A,FFF | "D"A2GF "G"G4 | "A7"CEEE CEEE | "A7"G2FE "D"F3F
|  "D"DFFE DFFA |  "D"d2cB "G"G3B | "D"BAFA "A7"AGEC | "D"D2 "A7"{E}DC "D"D4 :|
